;FLAVOR:Marlin
;TIME:1068
;Filament used: 0.227043m
;Layer height: 0.1
;MINX:115.722
;MINY:115.72
;MINZ:0.15
;MAXX:134.275
;MAXY:134.272
;MAXZ:16.15
;TARGET_MACHINE.NAME:Geeetech A20
;Generated with Cura_SteamEngine 5.10.0
M104 S210
M105
M109 S210
G28 
G1 Z15 F300
M107
G90
M82
M104 S215
M140 S55
G92 E0
M109 S215
M107
G0 X10 Y20 F6000
G1 Z0.8
G1 F300 X200 E40
G1 F1200 Z2
G92 E0
G28
M82 ;absolute extrusion mode
G92 E0
G92 E0
G1 F2100 E-0.8
;LAYER_COUNT:161
;LAYER:0
M107
G0 F3600 X118.187 Y118.689 Z0.15
;TYPE:SKIRT
G1 F2100 E0
G1 F1500 X118.844 Y118.045 E0.02295
G1 X119.514 Y117.51 E0.04434
G1 X120.215 Y117.049 E0.06527
G1 X121.138 Y116.56 E0.09132
G1 X121.721 Y116.314 E0.10711
G1 X122.75 Y115.99 E0.13402
G1 X123.589 Y115.824 E0.15535
G1 X124.447 Y115.729 E0.17689
G1 X125.235 Y115.72 E0.19654
G1 X126.24 Y115.795 E0.22168
G1 X127.197 Y115.984 E0.24602
G1 X128.248 Y116.306 E0.27344
G1 X128.779 Y116.521 E0.28773
G1 X129.857 Y117.091 E0.31815
G1 X130.572 Y117.571 E0.33963
G1 X131.368 Y118.245 E0.36565
G1 X131.843 Y118.721 E0.38242
G1 X132.572 Y119.631 E0.41151
G1 X132.943 Y120.197 E0.42839
G1 X133.392 Y121.024 E0.45186
G1 X133.694 Y121.748 E0.47143
G1 X134.027 Y122.837 E0.49984
G1 X134.176 Y123.586 E0.51889
G1 X134.271 Y124.44 E0.54032
G1 X134.275 Y125.495 E0.56664
G1 X134.164 Y126.48 E0.59137
G1 X133.993 Y127.31 E0.61251
G1 X133.674 Y128.309 E0.63867
G1 X133.436 Y128.884 E0.65419
G1 X132.887 Y129.894 E0.68286
G1 X132.491 Y130.484 E0.70059
G1 X131.923 Y131.191 E0.72321
G1 X131.176 Y131.935 E0.74951
G1 X130.36 Y132.578 E0.77543
G1 X129.751 Y132.971 E0.79351
G1 X128.862 Y133.44 E0.81858
G1 X128.279 Y133.686 E0.83437
G1 X127.25 Y134.01 E0.86128
G1 X126.411 Y134.176 E0.88261
G1 X125.553 Y134.271 E0.90414
G1 X124.599 Y134.272 E0.92794
G1 X123.493 Y134.159 E0.95568
G1 X122.731 Y133.999 E0.9751
G1 X121.815 Y133.717 E0.99901
G1 X121.062 Y133.404 E1.01935
G1 X120.095 Y132.88 E1.04678
G1 X119.508 Y132.484 E1.06445
G1 X118.801 Y131.916 E1.08707
G1 X118.211 Y131.332 E1.10778
G1 X117.526 Y130.513 E1.13441
G1 X117.057 Y129.803 E1.15564
G1 X116.643 Y129.046 E1.17716
G1 X116.227 Y128.046 E1.20418
G1 X115.966 Y127.135 E1.22782
G1 X115.82 Y126.347 E1.24781
G1 X115.726 Y125.335 E1.27316
G1 X115.722 Y124.694 E1.28915
G1 X115.824 Y123.554 E1.3177
G1 X115.975 Y122.832 E1.3361
G1 X116.299 Y121.777 E1.36363
G1 X116.597 Y121.06 E1.383
G1 X117.103 Y120.124 E1.40954
G1 X117.524 Y119.501 E1.4283
G1 X118.187 Y118.689 E1.45445
G0 F3600 X118.468 Y118.974
G1 F1500 X119.094 Y118.358 E1.47636
G1 X119.764 Y117.823 E1.49775
G1 X120.403 Y117.402 E1.51684
G1 X121.294 Y116.929 E1.542
G1 X121.877 Y116.683 E1.55778
G1 X122.828 Y116.382 E1.58267
G1 X123.633 Y116.222 E1.60314
G1 X124.491 Y116.127 E1.62467
G1 X125.239 Y116.12 E1.64333
G1 X126.21 Y116.194 E1.66763
G1 X127.118 Y116.376 E1.69073
G1 X128.098 Y116.677 E1.7163
G1 X128.629 Y116.892 E1.73059
G1 X129.669 Y117.444 E1.75996
G1 X130.314 Y117.877 E1.77934
G1 X131.085 Y118.528 E1.80451
G1 X131.56 Y119.004 E1.82129
G1 X132.238 Y119.851 E1.84835
G1 X132.591 Y120.388 E1.86438
G1 X133.04 Y121.215 E1.88785
G1 X133.311 Y121.865 E1.90542
G1 X133.644 Y122.954 E1.93383
G1 X133.778 Y123.63 E1.95102
G1 X133.873 Y124.484 E1.97245
G1 X133.875 Y125.496 E1.9977
G1 X133.772 Y126.399 E2.02037
G1 X133.601 Y127.229 E2.04151
G1 X133.304 Y128.156 E2.06579
G1 X133.066 Y128.731 E2.08131
G1 X132.555 Y129.671 E2.108
G1 X132.178 Y130.234 E2.12491
G1 X131.64 Y130.908 E2.14642
G1 X130.928 Y131.621 E2.17155
G1 X130.143 Y132.242 E2.19652
G1 X129.564 Y132.617 E2.21373
G1 X128.706 Y133.071 E2.23794
G1 X128.123 Y133.317 E2.25373
G1 X127.172 Y133.618 E2.27861
G1 X126.367 Y133.778 E2.29908
G1 X125.509 Y133.873 E2.32062
G1 X124.639 Y133.874 E2.34232
G1 X123.574 Y133.767 E2.36902
G1 X122.848 Y133.616 E2.38752
G1 X121.968 Y133.347 E2.41047
G1 X121.253 Y133.052 E2.42977
G1 X120.286 Y132.528 E2.4572
G1 X119.759 Y132.172 E2.47307
G1 X119.052 Y131.604 E2.49569
G1 X118.493 Y131.048 E2.51536
G1 X117.859 Y130.292 E2.53997
G1 X117.408 Y129.611 E2.56035
G1 X116.994 Y128.854 E2.58187
G1 X116.612 Y127.936 E2.60667
G1 X116.351 Y127.025 E2.63031
G1 X116.218 Y126.309 E2.64848
G1 X116.126 Y125.333 E2.67293
G1 X116.122 Y124.692 E2.68892
G1 X116.216 Y123.636 E2.71537
G1 X116.367 Y122.914 E2.73377
G1 X116.681 Y121.895 E2.76037
G1 X116.949 Y121.25 E2.77779
G1 X117.455 Y120.314 E2.80433
G1 X117.834 Y119.753 E2.82122
G1 X118.468 Y118.974 E2.84627
G0 F3600 X118.749 Y119.259
G1 F1500 X119.344 Y118.671 E2.86714
G1 X120.014 Y118.136 E2.88853
G1 X120.623 Y117.736 E2.9067
G1 X121.45 Y117.298 E2.93005
G1 X122.033 Y117.052 E2.94583
G1 X122.906 Y116.774 E2.96869
G1 X123.677 Y116.62 E2.9883
G1 X124.535 Y116.525 E3.00983
G1 X125.242 Y116.52 E3.02747
G1 X126.179 Y116.593 E3.05092
G1 X127.038 Y116.768 E3.07278
G1 X127.948 Y117.048 E3.09653
G1 X128.479 Y117.263 E3.11082
G1 X129.446 Y117.776 E3.13813
G1 X130.091 Y118.209 E3.15751
G1 X130.802 Y118.811 E3.18075
G1 X131.277 Y119.287 E3.19752
G1 X131.904 Y120.071 E3.22257
G1 X132.24 Y120.58 E3.23778
G1 X132.671 Y121.37 E3.26023
G1 X132.928 Y121.982 E3.27679
G1 X133.261 Y123.071 E3.30519
G1 X133.38 Y123.674 E3.32052
G1 X133.475 Y124.528 E3.34196
G1 X133.477 Y125.452 E3.36501
G1 X133.38 Y126.319 E3.38677
G1 X133.22 Y127.107 E3.40683
G1 X132.934 Y128.003 E3.43029
G1 X132.696 Y128.578 E3.44581
G1 X132.222 Y129.449 E3.47055
G1 X131.865 Y129.984 E3.48659
G1 X131.327 Y130.658 E3.50811
G1 X130.679 Y131.308 E3.531
G1 X129.925 Y131.907 E3.55502
G1 X129.377 Y132.264 E3.57134
G1 X128.55 Y132.702 E3.59468
G1 X127.967 Y132.948 E3.61047
G1 X127.094 Y133.226 E3.63332
G1 X126.323 Y133.38 E3.65293
G1 X125.465 Y133.475 E3.67447
G1 X124.679 Y133.476 E3.69407
G1 X123.614 Y133.369 E3.72078
G1 X122.965 Y133.233 E3.73732
G1 X122.085 Y132.964 E3.76027
G1 X121.443 Y132.7 E3.77759
G1 X120.509 Y132.196 E3.80406
G1 X120.01 Y131.86 E3.81907
G1 X119.303 Y131.292 E3.84169
G1 X118.799 Y130.79 E3.85943
G1 X118.192 Y130.07 E3.88293
G1 X117.759 Y129.419 E3.90243
G1 X117.345 Y128.662 E3.92395
G1 X116.997 Y127.826 E3.94654
G1 X116.736 Y126.915 E3.97018
G1 X116.616 Y126.271 E3.98652
G1 X116.526 Y125.331 E4.01008
G1 X116.522 Y124.69 E4.02607
G1 X116.608 Y123.718 E4.05041
G1 X116.759 Y122.996 E4.06881
G1 X117.051 Y122.047 E4.09358
G1 X117.301 Y121.44 E4.10995
G1 X117.807 Y120.504 E4.13649
G1 X118.145 Y120.005 E4.15153
G1 X118.749 Y119.259 E4.17547
G0 F3600 X119.031 Y119.543
G1 F1500 X119.594 Y118.984 E4.19526
G1 X120.264 Y118.449 E4.21665
G1 X120.811 Y118.089 E4.23299
G1 X121.606 Y117.666 E4.25545
G1 X122.156 Y117.433 E4.27035
G1 X122.985 Y117.166 E4.29208
G1 X123.721 Y117.018 E4.3108
G1 X124.579 Y116.923 E4.33234
G1 X125.244 Y116.92 E4.34893
G1 X126.147 Y116.992 E4.37152
G1 X126.921 Y117.151 E4.39123
G1 X127.798 Y117.419 E4.41411
G1 X128.329 Y117.634 E4.4284
G1 X129.258 Y118.129 E4.45466
G1 X129.833 Y118.515 E4.47193
G1 X130.519 Y119.094 E4.49433
G1 X130.994 Y119.57 E4.5111
G1 X131.571 Y120.292 E4.53416
G1 X131.889 Y120.772 E4.54852
G1 X132.302 Y121.525 E4.56994
G1 X132.559 Y122.137 E4.5865
G1 X132.869 Y123.149 E4.6129
G1 X132.982 Y123.718 E4.62737
G1 X133.077 Y124.572 E4.64881
G1 X133.079 Y125.408 E4.66966
G1 X132.982 Y126.275 E4.69142
G1 X132.839 Y126.986 E4.70952
G1 X132.564 Y127.85 E4.73213
G1 X132.326 Y128.425 E4.74766
G1 X131.871 Y129.257 E4.77131
G1 X131.552 Y129.734 E4.78563
G1 X131.014 Y130.408 E4.80714
G1 X130.43 Y130.995 E4.82779
G1 X129.706 Y131.572 E4.85089
G1 X129.189 Y131.911 E4.86631
G1 X128.394 Y132.334 E4.88877
G1 X127.844 Y132.567 E4.90367
G1 X127.015 Y132.834 E4.9254
G1 X126.279 Y132.982 E4.94413
G1 X125.421 Y133.077 E4.96566
G1 X124.718 Y133.078 E4.9832
G1 X123.695 Y132.977 E5.00884
G1 X123.082 Y132.85 E5.02446
G1 X122.202 Y132.581 E5.04741
G1 X121.632 Y132.348 E5.06277
G1 X120.732 Y131.864 E5.08826
G1 X120.261 Y131.548 E5.10241
G1 X119.554 Y130.98 E5.12503
G1 X119.105 Y130.532 E5.14086
G1 X118.498 Y129.812 E5.16435
G1 X118.11 Y129.227 E5.18186
G1 X117.696 Y128.47 E5.20338
G1 X117.381 Y127.715 E5.22379
G1 X117.129 Y126.841 E5.24648
G1 X117.014 Y126.232 E5.26194
G1 X116.926 Y125.328 E5.28459
G1 X116.921 Y124.724 E5.29966
G1 X117 Y123.8 E5.3228
G1 X117.151 Y123.078 E5.3412
G1 X117.421 Y122.198 E5.36416
G1 X117.653 Y121.63 E5.37946
G1 X118.139 Y120.727 E5.40504
G1 X118.456 Y120.256 E5.41921
G1 X119.031 Y119.543 E5.44205
G0 F3600 X119.313 Y119.826
G1 F1500 X119.844 Y119.297 E5.46075
G1 X120.514 Y118.762 E5.48214
G1 X121 Y118.442 E5.49665
G1 X121.763 Y118.034 E5.51824
G1 X122.279 Y117.814 E5.53223
G1 X123.108 Y117.547 E5.55396
G1 X123.765 Y117.416 E5.57067
G1 X124.623 Y117.321 E5.5922
G1 X125.245 Y117.32 E5.60772
G1 X126.114 Y117.391 E5.62947
G1 X126.805 Y117.534 E5.64707
G1 X127.648 Y117.79 E5.66905
G1 X128.179 Y118.005 E5.68334
G1 X129.036 Y118.462 E5.70756
G1 X129.575 Y118.821 E5.72372
G1 X130.237 Y119.378 E5.7453
G1 X130.682 Y119.82 E5.76095
G1 X131.238 Y120.514 E5.78313
G1 X131.538 Y120.964 E5.79662
G1 X131.951 Y121.717 E5.81804
G1 X132.19 Y122.291 E5.83355
G1 X132.477 Y123.228 E5.858
G1 X132.584 Y123.762 E5.87158
G1 X132.679 Y124.616 E5.89302
G1 X132.681 Y125.364 E5.91168
G1 X132.584 Y126.231 E5.93344
G1 X132.458 Y126.865 E5.94956
G1 X132.194 Y127.697 E5.97134
G1 X131.956 Y128.272 E5.98686
G1 X131.538 Y129.035 E6.00856
G1 X131.239 Y129.484 E6.02202
G1 X130.701 Y130.158 E6.04353
G1 X130.18 Y130.683 E6.06198
G1 X129.486 Y131.238 E6.08415
G1 X129 Y131.558 E6.09867
G1 X128.237 Y131.966 E6.12025
G1 X127.721 Y132.186 E6.13424
G1 X126.892 Y132.453 E6.15597
G1 X126.235 Y132.584 E6.17268
G1 X125.377 Y132.679 E6.19421
G1 X124.757 Y132.68 E6.20968
G1 X123.775 Y132.585 E6.23429
G1 X123.198 Y132.467 E6.24898
G1 X122.352 Y132.21 E6.27104
G1 X121.821 Y131.995 E6.28533
G1 X120.954 Y131.531 E6.30986
G1 X120.511 Y131.236 E6.32313
G1 X119.837 Y130.697 E6.34466
G1 X119.388 Y130.249 E6.36048
G1 X118.831 Y129.59 E6.38201
G1 X118.461 Y129.035 E6.39865
G1 X118.047 Y128.278 E6.42017
G1 X117.765 Y127.603 E6.43842
G1 X117.522 Y126.766 E6.46016
G1 X117.412 Y126.193 E6.47471
G1 X117.326 Y125.324 E6.4965
G1 X117.32 Y124.757 E6.51064
G1 X117.392 Y123.881 E6.53257
G1 X117.534 Y123.195 E6.55004
G1 X117.792 Y122.348 E6.57213
G1 X118.006 Y121.819 E6.58636
G1 X118.472 Y120.949 E6.61098
G1 X118.768 Y120.506 E6.62427
G1 X119.313 Y119.826 E6.64601
G1 F2100 E5.84601
;MESH:Nabenadapter.stl(1)
G0 F3600 X121.273 Y121.436
G0 X122.118 Y122.129
G0 X122.704 Y127.104
G0 X123.813 Y127.865
G0 X125 Y128.102
G0 X127.515 Y127.524
G0 X127.357 Y127.33
;TYPE:WALL-INNER
G1 F2100 E6.64601
G1 F1149.4 X126.837 Y127.753 E6.66783
G1 X126.263 Y128.06 E6.68902
G1 X125.645 Y128.247 E6.71004
G1 F1147.2 X125 Y128.31 E6.73118
G1 X124.352 Y128.245 E6.75242
G1 F1149.4 X123.733 Y128.06 E6.77345
G1 X123.161 Y127.752 E6.7946
G1 F1147.2 X122.639 Y127.324 E6.81662
G1 F1298.7 X122.548 Y126.91 E6.82883
G1 F1442.3 X122.548 Y124.858 E6.88206
G1 F1333.3 X122.548 Y122.806 E6.93965
G1 F1209.7 X122.665 Y122.654 E6.94558
G1 F1145 X123.159 Y122.243 E6.96658
G1 F1149.4 X123.732 Y121.938 E6.98771
G1 F1145 X124.351 Y121.75 E7.00885
G1 F1149.4 X125 Y121.687 E7.03008
G1 X125.649 Y121.75 E7.05131
G1 X126.262 Y121.939 E7.07219
G1 X126.837 Y122.243 E7.09336
G1 F1145 X127.331 Y122.654 E7.11436
G1 F1209.7 X127.448 Y122.807 E7.12032
G1 F1336.3 X127.448 Y124.859 E7.17778
G1 F1442.3 X127.448 Y126.911 E7.23101
G1 F1301.5 X127.357 Y127.33 E7.24334
G0 F3600 X127.515 Y127.524
G0 X126.563 Y128.101
G0 X125.699 Y128.518
G0 X125.748 Y128.761
G1 F1149.4 X126.461 Y128.543 E7.26761
G1 X127.127 Y128.187 E7.29219
G1 F1147.2 X127.709 Y127.709 E7.31676
G1 X127.764 Y127.642 E7.31959
G1 F1301.5 X128.238 Y127.161 E7.339
G1 F1500 X128.599 Y126.484 E7.35814
G1 X128.82 Y125.76 E7.37702
G1 X128.896 Y125 E7.39607
G1 X128.82 Y124.239 E7.41515
G1 X128.599 Y123.511 E7.43413
G1 X128.238 Y122.835 E7.45325
G1 F1287.6 X127.866 Y122.483 E7.46813
G1 F1136.4 X127.708 Y122.288 E7.47639
G1 F1145 X127.127 Y121.809 E7.501
G1 F1149.4 X126.461 Y121.454 E7.52557
G1 X125.75 Y121.237 E7.54977
G1 X125 Y121.164 E7.5743
G1 X124.249 Y121.236 E7.59886
G1 F1145 X123.535 Y121.454 E7.62325
G1 F1149.4 X122.869 Y121.809 E7.64782
G1 F1145 X122.287 Y122.287 E7.67243
G1 F1134.2 X122.13 Y122.482 E7.68069
G1 F1287.6 X121.758 Y122.835 E7.6956
G1 F1500 X121.397 Y123.511 E7.71471
G1 X121.176 Y124.238 E7.73367
G1 X121.103 Y125 E7.75276
G1 X121.176 Y125.762 E7.77186
G1 X121.397 Y126.484 E7.79069
G1 X121.759 Y127.161 E7.80984
G1 F1298.7 X122.232 Y127.643 E7.8293
G1 F1145 X122.287 Y127.709 E7.83211
G1 X122.869 Y128.187 E7.85672
G1 F1149.4 X123.534 Y128.543 E7.88127
G1 X124.251 Y128.76 E7.90566
G1 F1147.2 X125 Y128.835 E7.93021
G1 X125.748 Y128.761 E7.95473
G0 F3600 X125.84 Y129.215
;TYPE:WALL-OUTER
G1 F1500 X126.638 Y128.97 E7.97555
G1 X127.384 Y128.572 E7.99664
G1 X128.037 Y128.037 E8.0177
G1 X128.572 Y127.384 E8.03876
G1 X128.97 Y126.638 E8.05985
G1 X129.214 Y125.84 E8.08067
G1 X129.298 Y125 E8.10172
G1 X129.214 Y124.16 E8.12278
G1 X128.97 Y123.357 E8.14372
G1 X128.572 Y122.612 E8.16479
G1 X128.037 Y121.959 E8.18584
G1 X127.384 Y121.424 E8.2069
G1 X126.638 Y121.026 E8.22799
G1 X125.84 Y120.782 E8.24881
G1 X125 Y120.702 E8.26986
G1 X124.159 Y120.781 E8.29093
G1 X123.357 Y121.026 E8.31185
G1 X122.612 Y121.424 E8.33292
G1 X121.959 Y121.959 E8.35398
G1 X121.424 Y122.612 E8.37504
G1 X121.026 Y123.357 E8.39611
G1 X120.782 Y124.16 E8.41704
G1 X120.701 Y125 E8.43809
G1 X120.782 Y125.84 E8.45914
G1 X121.026 Y126.638 E8.47996
G1 X121.424 Y127.384 E8.50105
G1 X121.959 Y128.037 E8.52211
G1 X122.612 Y128.572 E8.54317
G1 X123.357 Y128.97 E8.56424
G1 X124.16 Y129.214 E8.58517
G1 X125 Y129.298 E8.60623
G1 X125.84 Y129.215 E8.62729
G0 F3600 X126.031 Y129.157
G0 X125.942 Y128.862
G0 X126.727 Y127.646
G0 X126.58 Y127.37
G1 F1500 X126.088 Y127.634 E8.64121
G1 X125.531 Y127.8 E8.65571
G1 X125 Y127.849 E8.66901
G1 X124.422 Y127.788 E8.68351
G1 X123.908 Y127.634 E8.6969
G1 X123.405 Y127.36 E8.71119
G1 X122.993 Y127.019 E8.72453
G1 X122.948 Y126.898 E8.72775
G1 X122.948 Y123.101 E8.82246
G1 X122.978 Y122.99 E8.82533
G1 X123.416 Y122.626 E8.83954
G1 X123.905 Y122.366 E8.85335
G1 X124.441 Y122.203 E8.86733
G1 X125 Y122.147 E8.88134
G1 X125.559 Y122.203 E8.89536
G1 X126.088 Y122.366 E8.90917
G1 X126.562 Y122.614 E8.92251
G1 X127.019 Y122.994 E8.93734
G1 X127.048 Y123.101 E8.9401
G1 X127.048 Y126.898 E9.03482
G1 X127.004 Y127.019 E9.03803
G1 X126.58 Y127.37 E9.05176
G0 F3600 X126.404 Y127.464
G0 X126.551 Y127.74
G0 X127.296 Y127.104
G0 X127.883 Y125.624
;TYPE:SKIN
G1 F1145 X127.899 Y125 E9.07216
G1 X127.883 Y124.371 E9.09272
G1 F1178.8 X127.882 Y123.098 E9.13313
G1 X128.196 Y123.679 E9.15409
G1 X128.389 Y124.322 E9.1754
G1 F1145 X128.44 Y125 E9.19762
G1 X128.389 Y125.674 E9.21971
G1 F1178.8 X128.195 Y126.314 E9.24094
G1 X127.883 Y126.9 E9.26201
G1 X127.883 Y125.624 E9.30251
G0 F3600 X127.696 Y127.293
G0 X126.946 Y127.913
G0 X125.673 Y128.439
G0 X124.317 Y128.436
G0 X123.054 Y127.913
G0 X122.304 Y127.293
G0 X122.112 Y125.629
G1 F1171.9 X122.111 Y126.899 E9.34306
G1 X121.798 Y126.313 E9.36428
G1 X121.604 Y125.678 E9.38548
G1 F1140.7 X121.555 Y125 E9.40777
G1 X121.605 Y124.318 E9.43021
G1 F1174.2 X121.797 Y123.68 E9.45144
G1 X122.113 Y123.104 E9.47237
G1 X122.113 Y124.367 E9.51262
G1 F1140.7 X122.098 Y125 E9.53339
G1 X122.112 Y125.629 E9.55403
G0 F3600 X121.94 Y125.629
G1 F2100 E8.75403
;MESH:NONMESH
G0 F600 X121.94 Y125.629 Z0.25
G0 F3600 X121.24 Y123.445
G0 X120.275 Y122.932
G0 X119.313 Y119.826
;TIME_ELAPSED:21.805001
;LAYER:1
M106 S255
;TYPE:SKIRT
G1 F2100 E9.55403
G1 F1500 X119.844 Y119.297 E9.5665
G1 X120.514 Y118.762 E9.58075
G1 X121 Y118.442 E9.59043
G1 X121.763 Y118.034 E9.60482
G1 X122.279 Y117.814 E9.61415
G1 X123.108 Y117.547 E9.62863
G1 X123.765 Y117.416 E9.63977
G1 X124.623 Y117.321 E9.65413
G1 X125.245 Y117.32 E9.66447
G1 X126.114 Y117.391 E9.67897
G1 X126.805 Y117.534 E9.69071
G1 X127.648 Y117.79 E9.70536
G1 X128.179 Y118.005 E9.71489
G1 X129.036 Y118.462 E9.73104
G1 X129.575 Y118.821 E9.74181
G1 X130.237 Y119.378 E9.7562
G1 X130.682 Y119.82 E9.76663
G1 X131.238 Y120.514 E9.78141
G1 X131.538 Y120.964 E9.79041
G1 X131.951 Y121.717 E9.80469
G1 X132.19 Y122.291 E9.81503
G1 X132.477 Y123.228 E9.83133
